X: 24103
T: Long Sloping Meadow, The
R: jig
M: 6/8
K: Adorian
c2A Bcd|edB AGE|G2G AGA|BAB GAB|
c2A Bcd|edB AGE|~G3 AGE|GED D3:|
g2e efg|age edB|g2e efg|1 age e2f|
g2e efg|age edB|cBA Bed|BAA A3]:|
[2 age ega|bag agf|gfg e2d|
cBA Bed|BAA A3 ]||

